icons/desktop/16/svg/page-landscape-16.svg

<svg width="16" height="16" viewBox="0 0 16 16" fill="none" xmlns="http://www.w3.org/2000/svg">
<path fill-rule="evenodd" clip-rule="evenodd" d="M2.45801 2.28859C5.19301 2.00259 8.00412 1.93858 10.7451 2.08058L10.9082 2.10695C11.4221 2.119 11.9124 2.32796 12.2764 2.69191L15.415 5.83156C15.7678 6.18446 15.973 6.65604 15.9961 7.15382H16V10.9741C16 12.3781 14.9429 13.5654 13.5459 13.7114C11.7159 13.9024 9.84595 13.9995 8 13.9995C6.15403 13.9995 4.28903 13.9034 2.45605 13.7124C1.05805 13.5674 0 12.384 0 10.979V5.02003C3.77102e-05 3.61408 1.05905 2.43461 2.45801 2.28859ZM10.5156 3.57179C7.90088 3.44682 5.2201 3.50982 2.61035 3.78078C1.97742 3.84577 1.50011 4.38099 1.5 5.02589V10.9751C1.5 11.6191 1.98592 12.1561 2.63184 12.2232C6.19072 12.5911 9.84076 12.5902 13.3896 12.2202C14.0226 12.1552 14.5 11.6201 14.5 10.9751V7.49269H11.5156C10.9638 7.49249 10.5156 7.04457 10.5156 6.49269V3.57179Z" fill="black"/>
</svg>

<!-- This Source Code Form is subject to the terms of the Mozilla Public
   - License, v. 2.0. If a copy of the MPL was not distributed with this
   - file, You can obtain one at http://mozilla.org/MPL/2.0/. -->
<svg xmlns="http://www.w3.org/2000/svg" width="16" height="16" fill="context-fill" fill-opacity="context-fill-opacity" viewBox="0 0 16 16">
    <path fill-rule="evenodd" d="M2.458 2.289a53.6 53.6 0 0 1 8.287-.208l.163.026a2 2 0 0 1 1.368.585l3.139 3.14c.353.352.558.824.581 1.322H16v3.82a2.75 2.75 0 0 1-2.454 2.737 53.7 53.7 0 0 1-11.09.001A2.745 2.745 0 0 1 0 10.98V5.02a2.744 2.744 0 0 1 2.458-2.731m8.058 1.283a53 53 0 0 0-7.906.209c-.633.065-1.11.6-1.11 1.245v5.95c0 .643.486 1.18 1.132 1.247 3.559.368 7.209.367 10.758-.003.633-.065 1.11-.6 1.11-1.245V7.493h-2.984a1 1 0 0 1-1-1z" clip-rule="evenodd" />
</svg>
